X:3205
T:Poloness nr 43
S:efter avskrift (låt nr 43 häri) av [[Personer/Samuel Landtmanson]] 
S:efter Gustaf Blidström
R:Polska
O:Tobolsk, Ryssland / Skara, Västergötland
B:Blidströms Menuetter och Polska Dantzar
N:Se även [[Musik/202|+]]
M:3/4
L:1/16
Z:Per Oldberg 2013
V:1 clef=treble
V:2 clef=treble 
K:Dmaj
V:1
|: d2dc d2cB A2G2 | F2e2 G2FE F2ED | D2a2 E2g2 D2f2 | 
V:2
|: F2FE F2ED F2E2 | D2c2 E2DC D2CA, | F2f2 G2e2 F2d2 | 
V:1
e2d2 e2d2 c2BA | e2ag f4B4 | c2de e4 A2^G2 | A8A4 :| 
V:2
c2B2 c2B2 A2GE | c2fe d4G4 | A2Bc B2^G2 E2D2 | C8C4 :| 
V:1
|: A2e2 e2dc d2cB | cded cdcB ABAG | F2a2 a2gf g2fe | 
V:2
|: E2c2 c2BA B2A^G | ABcB ABA=G FGFE | D2f2 f2ed e2dc | 
V:1
fgag fgfe dedc | B2b2 a2B2 e2fg | A2dc d8 :| 
V:2
defe dedc BcBA | G2g2 f2G2 c2de | E2FGF8 :| 
V:1
V:2
V:1
V:2

(:musicend:)
(:music:)
